communes/614.svg

<?xml version="1.0" encoding="UTF-8" standalone="no"?>
<svg
   xmlns:i="http://ns.adobe.com/AdobeIllustrator/10.0/"
   xmlns:dc="http://purl.org/dc/elements/1.1/"
   xmlns:cc="http://web.resource.org/cc/"
   xmlns:rdf="http://www.w3.org/1999/02/22-rdf-syntax-ns#"
   xmlns:svg="http://www.w3.org/2000/svg"
   xmlns="http://www.w3.org/2000/svg"
   xmlns:xlink="http://www.w3.org/1999/xlink"
   xmlns:sodipodi="http://sodipodi.sourceforge.net/DTD/sodipodi-0.dtd"
   xmlns:inkscape="http://www.inkscape.org/namespaces/inkscape"
   height="763"
   width="603"
   version="1.0"
   id="svg20"
   sodipodi:version="0.32"
   inkscape:version="0.44.1"
   sodipodi:docname="Linden-coat of arms.svg"
   sodipodi:docbase="F:\MIS DOCUMENTOS\Mis imágenes\Encyclopédie\Escudos de Suiza">
  <metadata
     id="metadata31">
    <rdf:RDF>
      <cc:Work
         rdf:about="">
        <dc:format>image/svg+xml</dc:format>
        <dc:type
           rdf:resource="http://purl.org/dc/dcmitype/StillImage" />
        <dc:date>07-AUG-2006</dc:date>
        <dc:creator>
          <cc:Agent>
            <dc:title>Jérôme BLUM (wagner51)</dc:title>
          </cc:Agent>
        </dc:creator>
        <cc:license
           rdf:resource="http://creativecommons.org/licenses/GPL/2.0/" />
        <dc:coverage />
        <dc:description>Gabarit pour le Projet:Blasons de WIkipédia</dc:description>
        <dc:subject>
          <rdf:Bag>
            <rdf:li>blason suisse modèle gabarit projet blasons</rdf:li>
          </rdf:Bag>
        </dc:subject>
        <dc:language>fr</dc:language>
        <dc:title>Gabrit d'un blason suisse</dc:title>
      </cc:Work>
      <cc:License
         rdf:about="http://creativecommons.org/licenses/GPL/2.0/">
        <cc:permits
           rdf:resource="http://web.resource.org/cc/Reproduction" />
        <cc:permits
           rdf:resource="http://web.resource.org/cc/Distribution" />
        <cc:requires
           rdf:resource="http://web.resource.org/cc/Notice" />
        <cc:permits
           rdf:resource="http://web.resource.org/cc/DerivativeWorks" />
        <cc:requires
           rdf:resource="http://web.resource.org/cc/ShareAlike" />
        <cc:requires
           rdf:resource="http://web.resource.org/cc/SourceCode" />
      </cc:License>
    </rdf:RDF>
  </metadata>
  <defs
     id="defs29">
    <linearGradient
       id="linearGradient2893">
      <stop
         style="stop-color:#ffffff;stop-opacity:0.3137255;"
         offset="0"
         id="stop2895" />
      <stop
         id="stop2897"
         offset="0.19"
         style="stop-color:#ffffff;stop-opacity:0.25098041;" />
      <stop
         style="stop-color:#6b6b6b;stop-opacity:0.1254902;"
         offset="0.60000002"
         id="stop2901" />
      <stop
         style="stop-color:#000000;stop-opacity:0.1254902;"
         offset="1"
         id="stop2899" />
    </linearGradient>
    <linearGradient
       id="linearGradient2955">
      <stop
         style="stop-color:white;stop-opacity:0;"
         offset="0"
         id="stop2965" />
      <stop
         style="stop-color:black;stop-opacity:0.64583331;"
         offset="1"
         id="stop2959" />
    </linearGradient>
    <radialGradient
       inkscape:collect="always"
       xlink:href="#linearGradient2893"
       id="radialGradient3236"
       gradientUnits="userSpaceOnUse"
       gradientTransform="matrix(1.215027,1.531577e-24,1.464684e-23,1.266667,-839.1924,-490.4894)"
       cx="858.04236"
       cy="579.93323"
       fx="858.04236"
       fy="579.93323"
       r="300" />
  </defs>
  <sodipodi:namedview
     inkscape:window-height="682"
     inkscape:window-width="1024"
     inkscape:pageshadow="2"
     inkscape:pageopacity="0.0"
     guidetolerance="10.0"
     gridtolerance="10.0"
     objecttolerance="10.0"
     borderopacity="1.0"
     bordercolor="#666666"
     pagecolor="#ffffff"
     id="base"
     inkscape:zoom="0.48301887"
     inkscape:cx="344.43619"
     inkscape:cy="306.47069"
     inkscape:window-x="-4"
     inkscape:window-y="-4"
     inkscape:current-layer="layer1"
     showgrid="true"
     showguides="true"
     inkscape:guide-bbox="true" />
  <desc
     id="desc22">Coat of Arms of Canton of Freiburg (Fribourg)</desc>
  <g
     inkscape:groupmode="layer"
     id="layer1"
     inkscape:label="Fond écu">
    <path
       id="path1899"
       d="M 1.5,1.49998 L 1.5,460.3679 C 1.5,626.6785 135.81456,761.5 301.49999,761.5 C 467.18543,761.5 601.5,626.6785 601.5,460.3679 L 601.5,1.49998 L 1.5,1.49998 z "
       style="fill:white;fill-opacity:1" />
  </g>
  <g
     inkscape:groupmode="layer"
     id="layer2"
     inkscape:label="Meubles"
     sodipodi:insensitive="true">
    <g
       id="g5518">
      <rect
         y="416.5"
         x="226.5"
         height="167.00002"
         width="147.00006"
         id="rect1947"
         style="fill:#b7502c;fill-opacity:1;stroke:black;stroke-width:3.00000095;stroke-linejoin:round;stroke-miterlimit:4;stroke-dasharray:none;stroke-opacity:1" />
      <g
         id="g31937"
         transform="matrix(1.411499,0,0,1.099705,-122.5978,-75.75436)">
        <path
           id="path4760"
           transform="matrix(0.708467,0,0,0.909335,86.85646,68.88607)"
           d="M 300.84375,543.78125 C 228.77684,543.78123 209.19823,594.72383 218.09375,628.6875 C 218.09375,628.68748 154.94799,585.74369 103.34375,632.1875 C 91.351366,642.98064 84.865256,654.48563 82.46875,666.125 C 137.21107,724.8155 215.08393,761.5 301.5,761.5 C 387.34453,761.5 464.75379,725.29363 519.4375,667.28125 C 517.24298,655.25597 510.75954,643.33358 498.375,632.1875 C 446.77418,585.74371 383.59375,628.6875 383.59375,628.6875 C 392.49282,594.72382 372.907,543.78125 300.84375,543.78125 z "
           style="opacity:1;fill:#5ab532;fill-opacity:1;stroke:black;stroke-width:2.20726347;stroke-miterlimit:4;stroke-dasharray:none;stroke-opacity:1" />
        <path
           sodipodi:nodetypes="ccc"
           style="opacity:1;fill:none;stroke:black;stroke-width:2.20726228;stroke-linecap:round;stroke-linejoin:round"
           i:knockout="Off"
           d="M 313.1091,761.01708 C 322.6191,750.99452 337.1871,727.80244 352.3711,675.01861 C 358.97424,642.61462 364.9089,616.59172 351.5951,591.92333"
           id="path2005" />
        <path
           sodipodi:nodetypes="csc"
           style="opacity:1;fill:none;stroke:black;stroke-width:2.20726228;stroke-linecap:round;stroke-linejoin:round"
           i:knockout="Off"
           d="M 286.8601,761.01708 C 277.3501,750.99452 260.87346,728.31474 247.5991,675.01861 C 238.79907,639.68675 237.2572,611.46796 248.3751,591.92333"
           id="path2003" />
      </g>
      <path
         sodipodi:nodetypes="cssscsccsc"
         id="path2838"
         d="M 304.14062,62.429688 C 270.7778,62.429688 197.57362,93.074613 149.10045,143.54577 C 88.773568,206.35923 71.995049,295.19573 71.995048,331.53607 C 71.995048,413.50805 118.02799,481.50001 200,481.5 C 238.50385,481.5 273.60537,466.81279 300,442.75 C 326.39463,466.81279 361.49615,481.5 400,481.5 C 481.972,481.5 529.4689,417.89983 529.46888,335.92786 L 529.46888,331.03125 C 529.012,296.76038 511.27402,205.22884 454.60898,144.48423 C 404.06341,90.299653 339.43481,62.429687 304.14062,62.429688 z "
         style="fill:#5ab532;fill-opacity:1;stroke:black;stroke-width:2.20423436;stroke-linejoin:round;stroke-miterlimit:4;stroke-dasharray:none;stroke-opacity:1" />
      <path
         transform="matrix(0.540033,-0.224384,0.234315,0.517145,320.6844,129.9438)"
         d="M -281.5625,402.76562 L -358.67435,358.25123 L -424.40872,418.30754 L -424.41406,329.26953 L -509.29153,302.37005 L -432.18502,257.84642 L -451.32812,170.89063 L -374.21627,215.40502 L -308.4819,155.34871 L -308.47656,244.38672 L -223.5991,271.2862 L -300.70561,315.80983 L -281.5625,402.76562 z "
         inkscape:randomized="0"
         inkscape:rounded="0"
         inkscape:flatsided="false"
         sodipodi:arg2="1.4624209"
         sodipodi:arg1="0.93882208"
         sodipodi:r2="71.844612"
         sodipodi:r1="143.68922"
         sodipodi:cy="286.82813"
         sodipodi:cx="-366.44531"
         sodipodi:sides="6"
         id="path4627"
         style="fill:#fcef3c;fill-opacity:1;stroke:black;stroke-width:5.20773363;stroke-linejoin:round;stroke-miterlimit:4;stroke-dasharray:none;stroke-opacity:1"
         sodipodi:type="star" />
      <path
         sodipodi:type="star"
         style="fill:#fcef3c;fill-opacity:1;stroke:black;stroke-width:5.20773363;stroke-linejoin:round;stroke-miterlimit:4;stroke-dasharray:none;stroke-opacity:1"
         id="path5514"
         sodipodi:sides="6"
         sodipodi:cx="-366.44531"
         sodipodi:cy="286.82813"
         sodipodi:r1="143.68922"
         sodipodi:r2="71.844612"
         sodipodi:arg1="0.93882208"
         sodipodi:arg2="1.4624209"
         inkscape:flatsided="false"
         inkscape:rounded="0"
         inkscape:randomized="0"
         d="M -281.5625,402.76562 L -358.67435,358.25123 L -424.40872,418.30754 L -424.41406,329.26953 L -509.29153,302.37005 L -432.18502,257.84642 L -451.32812,170.89063 L -374.21627,215.40502 L -308.4819,155.34871 L -308.47656,244.38672 L -223.5991,271.2862 L -300.70561,315.80983 L -281.5625,402.76562 z "
         transform="matrix(0.540033,-0.224384,0.234315,0.517145,540.6844,129.9438)" />
      <path
         sodipodi:type="star"
         style="fill:#fcef3c;fill-opacity:1;stroke:black;stroke-width:5.20773363;stroke-linejoin:round;stroke-miterlimit:4;stroke-dasharray:none;stroke-opacity:1"
         id="path5516"
         sodipodi:sides="6"
         sodipodi:cx="-366.44531"
         sodipodi:cy="286.82813"
         sodipodi:r1="143.68922"
         sodipodi:r2="71.844612"
         sodipodi:arg1="0.93882208"
         sodipodi:arg2="1.4624209"
         inkscape:flatsided="false"
         inkscape:rounded="0"
         inkscape:randomized="0"
         d="M -281.5625,402.76562 L -358.67435,358.25123 L -424.40872,418.30754 L -424.41406,329.26953 L -509.29153,302.37005 L -432.18502,257.84642 L -451.32812,170.89063 L -374.21627,215.40502 L -308.4819,155.34871 L -308.47656,244.38672 L -223.5991,271.2862 L -300.70561,315.80983 L -281.5625,402.76562 z "
         transform="matrix(0.540033,-0.224384,0.234315,0.517145,430.6844,-40.05618)" />
    </g>
  </g>
  <g
     inkscape:groupmode="layer"
     id="layer3"
     inkscape:label="Reflet final"
     style="display:inline"
     sodipodi:insensitive="true">
    <path
       style="fill:url(#radialGradient3236);fill-opacity:1"
       d="M 1.5,1.5 L 1.5,460.3679 C 1.5,626.67854 135.81454,761.5 301.49993,761.5 C 467.1854,761.5 601.5,626.67854 601.5,460.3679 L 601.5,1.5 L 1.5,1.5 z "
       id="path2346" />
  </g>
  <g
     inkscape:groupmode="layer"
     id="layer4"
     inkscape:label="Contour final"
     style="display:inline"
     sodipodi:insensitive="true">
    <path
       style="fill:none;fill-opacity:1;stroke:black;stroke-width:3;stroke-miterlimit:4;stroke-dasharray:none;stroke-opacity:1"
       d="M 1.5,1.5 L 1.5,460.36794 C 1.5,626.67854 135.81454,761.5 301.49993,761.5 C 467.1854,761.5 601.5,626.67854 601.5,460.36794 L 601.5,1.5 L 1.5,1.5 z "
       id="path3239" />
  </g>
</svg>

<?xml version="1.0" encoding="UTF-8"?>
<svg version="1.0" viewBox="0 0 603 763" xmlns="http://www.w3.org/2000/svg" xmlns:cc="http://web.resource.org/cc/" xmlns:dc="http://purl.org/dc/elements/1.1/" xmlns:rdf="http://www.w3.org/1999/02/22-rdf-syntax-ns#" xmlns:xlink="http://www.w3.org/1999/xlink">
<metadata>
<rdf:RDF>
<cc:Work rdf:about="">
<dc:format>image/svg+xml</dc:format>
<dc:type rdf:resource="http://purl.org/dc/dcmitype/StillImage"/>
<dc:date>07-AUG-2006</dc:date>
<dc:creator>
<cc:Agent>
<dc:title>Jérôme BLUM (wagner51)</dc:title>
</cc:Agent>
</dc:creator>
<cc:license rdf:resource="http://creativecommons.org/licenses/GPL/2.0/"/>
<dc:coverage/>
<dc:description>Gabarit pour le Projet:Blasons de WIkipédia</dc:description>
<dc:subject>
<rdf:Bag>
<rdf:li>blason suisse modèle gabarit projet blasons</rdf:li>
</rdf:Bag>
</dc:subject>
<dc:language>fr</dc:language>
<dc:title>Gabrit d'un blason suisse</dc:title>
</cc:Work>
<cc:License rdf:about="http://creativecommons.org/licenses/GPL/2.0/">
<cc:permits rdf:resource="http://web.resource.org/cc/Reproduction"/>
<cc:permits rdf:resource="http://web.resource.org/cc/Distribution"/>
<cc:requires rdf:resource="http://web.resource.org/cc/Notice"/>
<cc:permits rdf:resource="http://web.resource.org/cc/DerivativeWorks"/>
<cc:requires rdf:resource="http://web.resource.org/cc/ShareAlike"/>
<cc:requires rdf:resource="http://web.resource.org/cc/SourceCode"/>
</cc:License>
</rdf:RDF>
</metadata>
<defs>
<radialGradient id="a" cx="858.04" cy="579.93" r="300" gradientTransform="matrix(1.215 1.5316e-24 1.4647e-23 1.2667 -839.19 -490.49)" gradientUnits="userSpaceOnUse">
<stop stop-color="#fff" stop-opacity=".31373" offset="0"/>
<stop stop-color="#fff" stop-opacity=".25098" offset=".19"/>
<stop stop-color="#6b6b6b" stop-opacity=".12549" offset=".6"/>
<stop stop-opacity=".12549" offset="1"/>
</radialGradient>
</defs>
<desc>Coat of Arms of Canton of Freiburg (Fribourg)</desc>
<path d="m1.5 1.5v458.87c0 166.31 134.31 301.13 300 301.13 165.69 0 300-134.82 300-301.13v-458.87h-600z" fill="#fff"/>
<g stroke="#000">
<rect x="226.5" y="416.5" width="147" height="167" fill="#b7502c" stroke-linejoin="round" stroke-width="3"/>
<g transform="matrix(1.4115 0 0 1.0997 -122.6 -75.754)">
<path transform="matrix(.70847 0 0 .90934 86.856 68.886)" d="m300.84 543.78c-72.067-2e-5 -91.646 50.943-82.75 84.906 0-2e-5 -63.146-42.944-114.75 3.5-11.992 10.793-18.478 22.298-20.875 33.938 54.742 58.69 132.62 95.375 219.03 95.375 85.845 0 163.25-36.206 217.94-94.219-2.1945-12.025-8.678-23.948-21.062-35.094-51.601-46.444-114.78-3.5-114.78-3.5 8.8991-33.964-10.687-84.906-82.75-84.906z" fill="#5ab532" stroke-width="2.2073"/>
<path d="m313.11 761.02c9.51-10.023 24.078-33.215 39.262-85.998 6.6031-32.404 12.538-58.427-0.776-83.095" fill="none" stroke-linecap="round" stroke-linejoin="round" stroke-width="2.2073"/>
<path d="m286.86 761.02c-9.51-10.023-25.987-32.702-39.261-85.998-8.8-35.332-10.342-63.551 0.776-83.095" fill="none" stroke-linecap="round" stroke-linejoin="round" stroke-width="2.2073"/>
</g>
<path d="m304.14 62.43c-33.363 0-106.57 30.645-155.04 81.116-60.327 62.813-77.105 151.65-77.105 187.99 0 81.972 46.033 149.96 128 149.96 38.504 0 73.605-14.687 100-38.75 26.395 24.063 61.496 38.75 100 38.75 81.972 0 129.47-63.6 129.47-145.57v-4.8966c-0.45688-34.271-18.195-125.8-74.86-186.55-50.546-54.185-115.17-82.055-150.47-82.055z" fill="#5ab532" stroke-linejoin="round" stroke-width="2.2042"/>
<path transform="matrix(.54003 -.22438 .23432 .51714 320.68 129.94)" d="m-281.56 402.77-77.112-44.514-65.734 60.056-0.00534-89.038-84.877-26.899 77.107-44.524-19.143-86.956 77.112 44.514 65.734-60.056 0.00534 89.038 84.877 26.899-77.107 44.524 19.143 86.956z" fill="#fcef3c" stroke-linejoin="round" stroke-width="5.2077"/>
<path transform="matrix(.54003 -.22438 .23432 .51714 540.68 129.94)" d="m-281.56 402.77-77.112-44.514-65.734 60.056-0.00534-89.038-84.877-26.899 77.107-44.524-19.143-86.956 77.112 44.514 65.734-60.056 0.00534 89.038 84.877 26.899-77.107 44.524 19.143 86.956z" fill="#fcef3c" stroke-linejoin="round" stroke-width="5.2077"/>
<path transform="matrix(.54003 -.22438 .23432 .51714 430.68 -40.056)" d="m-281.56 402.77-77.112-44.514-65.734 60.056-0.00534-89.038-84.877-26.899 77.107-44.524-19.143-86.956 77.112 44.514 65.734-60.056 0.00534 89.038 84.877 26.899-77.107 44.524 19.143 86.956z" fill="#fcef3c" stroke-linejoin="round" stroke-width="5.2077"/>
</g>
<g>
<path d="m1.5 1.5v458.87c0 166.31 134.31 301.13 300 301.13 165.69 0 300-134.82 300-301.13v-458.87h-600z" fill="url(#a)"/>
<path d="m1.5 1.5v458.87c0 166.31 134.31 301.13 300 301.13 165.69 0 300-134.82 300-301.13v-458.87h-600z" fill="none" stroke="#000" stroke-width="3"/>
</g>
</svg>
